X: 75
T: Irish Air
O: "In the Poor Soldier"
%R: slip-jig
B: "The Hibernian Muse" p.47 #1
F: http://imslp.org/wiki/The_Hibernian_Muse_%28Various%29
Z: 2015 John Chambers <jc:trillian.mit.edu>
P: No. XXV.
M: 9/8
L: 1/8
K: D
% - - - - - - - - - - - - - - - - - - - - - - - - - - - - -
V: 1
A |\
F>GA AFA B3 | e2E E2F GFE | F>GA AFA B3 | AFD D2E FED |
def def e3 | g2B Bcd cBA | dAF FAF B3 | AFD D2E FED |]
% - - - - - - - - - - - - - - - - - - - - - - - - - - - - -
V: 2 clef=bass middle=d
z |\
d3 f3 geg | a3 A3 A3 | d3 f3 geg | f3 a3 d3 |
d2d' d2d' c'ba | b3 g3 a3 | f3 d3 geg | f3 A3 d3 |]

%%sep 2 1 500
%%sep 1 1 500

